icon-svg/boca-juniors.svg

<svg xmlns="http://www.w3.org/2000/svg" fill="#44739e" viewBox="0 0 24 24"><path d="m7.106 14.755.368-.249h-.452l-.137-.403-.137.401-.455.002.368.251-.139.398.36-.244.368.244zm-.723-1.329.368-.249H6.3l-.136-.402-.139.4-.454.002.367.25-.137.398.358-.242.368.242zm2.154 1.729.36-.244.366.244-.144-.4.368-.249h-.451l-.136-.403-.139.401-.454.002.367.251Zm-.73.671-.138-.403-.138.401-.455.002.369.25-.139.399.36-.245.366.245-.142-.4.366-.249zm1.301 1.394-.138-.401-.137.401h-.455l.368.253-.138.398.359-.244.366.244-.142-.4.367-.251zm-1.474-4.977.582-.58-.001-.674H7.151v.463h-.577V9.721h.577v.47h1.064l.001-.685-.582-.581H6.089l-.58.581v2.157l.582.58zm-.359-7.96.359-.243.368.243-.144-.4.368-.249h-.451l-.136-.401-.139.399-.454.002.368.251Zm3.023 14.257-.137-.402-.139.402h-.454l.369.252-.139.397.36-.243.366.243-.142-.398.366-.251zM8.166 5.052l-.139.398.36-.244.368.244-.144-.401.368-.249h-.452l-.135-.402-.139.402h-.455ZM5.51 7.755h-.451l-.136-.402-.138.4-.455.002.368.252-.138.397.358-.243.368.243-.144-.4Zm1.049-1.278-.137.398.358-.244.368.244-.144-.401.368-.25H6.92l-.135-.401-.139.401h-.455Zm-1.925.154L5 6.875l-.142-.401.366-.25h-.45l-.137-.401-.137.401h-.455l.368.253-.139.398Zm.993-1.181.36-.244.366.244-.142-.401.366-.249h-.45l-.137-.402-.137.402h-.455l.368.252zm12.401 7.727-.137-.402-.137.4-.457.002.37.25-.139.398.36-.242.366.242-.142-.399.366-.249zM8.711 6.224h-.455l.368.253-.138.398.359-.244.366.244-.142-.401.366-.25h-.449l-.138-.401Zm8.391 2.701v.796h.177v1.73l-.408.001-.002-.563-1 .001-.002.862.564.491h1.423l.453-.486-.001-2.036h.179l-.002-.796Zm.204 5.581-.137-.403-.138.401-.455.002.368.251-.138.398.359-.244.368.244-.144-.4.367-.249zm3.461-9.165L16.063 2A6 6 0 0 1 12 3.564 6.01 6.01 0 0 1 7.935 2l-4.7 3.34A17.341 17.341 0 0 0 12 22a17.339 17.339 0 0 0 8.767-16.659M12 21.022A16.424 16.424 0 0 1 4.025 5.731L7.892 2.98A7.223 7.223 0 0 0 12 4.356a7.255 7.255 0 0 0 4.109-1.379l3.867 2.752A16.43 16.43 0 0 1 12 21.022m7.503-14.798-.137-.401-.137.401h-.457l.37.253-.139.398.36-.244.366.244-.142-.401.366-.25zm-.284 1.531-.137-.402-.139.4-.455.002.368.252-.137.397.359-.243.367.243-.143-.4.367-.249zm-7.646 9.285h-.452l-.135-.402-.139.4-.455.002.368.251-.139.398.36-.243.368.243-.144-.4zm.46.869-.138.4-.456.002.37.252-.139.397.359-.243.367.243-.143-.4.367-.249h-.45zm.137 1.981-.137-.404-.138.402-.456.002.37.25-.139.397.359-.243.367.243-.143-.4.367-.247zm1.12-2.601.367-.249h-.45l-.137-.402-.138.4-.455.002.368.251-.138.398.359-.243.366.243zm.741 1.251-.137-.402-.137.402H13.3l.37.252-.139.397.36-.243.366.243-.142-.398.366-.251zm1.124-4.437-.137.401-.457.002.37.251-.139.398.36-.244.366.244-.142-.4.366-.249h-.45zm1.368 1.723-.137-.403-.137.401-.457.002.37.25-.139.399.359-.245.367.245-.142-.4.366-.249zM15.22 17.22l-.135-.401-.139.401h-.455l.368.253-.139.398.36-.244.368.244-.144-.4.368-.251zM7.134 7.755l-.137-.402-.137.4-.455.002.368.252-.139.397.36-.243.368.243-.144-.4.366-.249Zm6.073 6.751-.137-.403-.138.401-.455.002.368.251-.138.398.359-.244.366.244-.142-.4.367-.249zm-2.086 0-.135-.403-.139.401-.455.002.368.251-.139.398.36-.244.368.244-.144-.4.368-.249zm1.049 1.32-.137-.403-.138.401-.456.002.37.25-.139.399.359-.245.367.245-.143-.4.367-.249zm0-2.649-.137-.402-.138.4-.456.002.37.25-.139.398.359-.242.367.242-.143-.399.367-.249zm-2.218 2.649-.137-.403-.137.401-.457.002.37.25-.139.399.36-.245.366.245-.142-.4.366-.249zm.254-2.649-.137-.402-.137.4-.456.002.369.25-.139.398.36-.242.366.242-.142-.399.366-.249zm5.797-8.894.359-.243.367.243-.142-.4.366-.249h-.45l-.137-.401-.139.399-.455.002.37.251zm.992 2.194-.138.398.36-.244.366.244-.142-.401.366-.25h-.45l-.137-.401-.138.401h-.455Zm.655-1.027.36-.244.366.244-.142-.401.366-.249h-.45l-.137-.402-.137.402h-.457l.37.252zm-.517 2.305-.137-.402-.137.4-.456.002.369.252-.139.397.36-.243.366.243-.142-.4.366-.249zm-2.756 8.071-.137-.403-.139.401-.455.002.368.25-.137.399.36-.245.366.245-.142-.4.366-.249zm1.698-2.649-.137-.402-.138.4-.454.002.368.25-.139.398.359-.242.368.242-.144-.399.368-.249zm-1.954 0-.135-.402-.139.4-.455.002.368.25-.137.398.36-.242.366.242-.144-.399.368-.249zM15.24 5.45l.36-.244.366.244-.144-.401.368-.249h-.451l-.136-.402-.139.402h-.455l.368.252zm-6.987 7.727-.137-.402-.137.4-.455.002.368.25-.139.398.36-.242.367.242-.143-.399.366-.249zm3.158-3.456v-.8H9.435v.8h.182l-.8 1.731h-.15v.791h1.371v-.791h-.169l.061-.14h.984l.062.14h-.169v.791h1.368v-.791h-.15l-.8-1.731zm-1.206.952.219-.391.209.391zm.224-5.223.359-.244.367.244-.143-.401.367-.249h-.45l-.137-.402-.137.402h-.457l.37.252zM8.96 7.353l-.137.4-.455.002.368.252-.138.397.359-.243.366.243-.142-.4.366-.249h-.449Zm3.696 1.051.36-.243.366.243-.142-.4.366-.249h-.45l-.137-.402-.138.4-.455.002.369.252zm-1.682-1.051-.137.4-.455.002.368.252-.139.397.36-.243.368.243-.144-.4.368-.249h-.452Zm1.753-.478.359-.244.368.244-.144-.401.368-.25h-.451l-.136-.401-.139.401h-.454l.367.253zm2.065 0 .36-.244.366.244-.142-.401.366-.25h-.45l-.137-.401-.137.401h-.457l.37.253zm.627 4.783v-1l-.241-.163.241-.167V9.5l-.605-.572h-2.206v.8h.283v1.732h-.281v.791h2.2zm-1.1-.206h-.44v-.465h.44zm0-1.274h-.44v-.457h.44zm.361-1.774.36-.243.366.243-.142-.4.366-.249h-.45l-.137-.402-.137.4-.455.002.368.252zm-3.629-2.18-.137-.401-.139.401h-.455l.37.253-.139.398.359-.244.367.244-.142-.401.366-.25zm1.788-.774.359-.244.368.244-.144-.401.367-.249h-.45l-.137-.402-.138.402h-.454l.368.252z"/></svg>

<?xml version="1.0" encoding="UTF-8"?>
<svg width="24px" fill="#44739e" height="24px" viewBox="0 0 24 24" version="1.1" xmlns="http://www.w3.org/2000/svg" xmlns:xlink="http://www.w3.org/1999/xlink">
            <path d="M 7.106,14.755 7.474,14.506 H 7.022 l -0.137,-0.403 -0.137,0.401 -0.455,0.002 0.368,0.251 -0.139,0.398 0.36,-0.244 0.368,0.244 z M 6.383,13.426 6.751,13.177 H 6.3 l -0.136,-0.402 -0.139,0.4 -0.454,0.002 0.367,0.25 -0.137,0.398 0.358,-0.242 0.368,0.242 z m 2.154,1.729 0.36,-0.244 0.366,0.244 -0.144,-0.4 0.368,-0.249 H 9.036 L 8.9,14.103 8.761,14.504 8.307,14.506 8.674,14.757 Z m -0.73,0.671 -0.138,-0.403 -0.138,0.401 -0.455,0.002 0.369,0.25 -0.139,0.399 0.36,-0.245 0.366,0.245 -0.142,-0.4 0.366,-0.249 z M 9.108,17.22 8.97,16.819 8.833,17.22 H 8.378 l 0.368,0.253 -0.138,0.398 0.359,-0.244 0.366,0.244 -0.142,-0.4 0.367,-0.251 z M 7.634,12.243 8.216,11.663 8.215,10.989 H 7.151 v 0.463 H 6.574 V 9.721 h 0.577 v 0.47 H 8.215 L 8.216,9.506 7.634,8.925 H 6.089 l -0.58,0.581 v 2.157 l 0.582,0.58 z M 7.275,4.283 7.634,4.04 8.002,4.283 7.858,3.883 8.226,3.634 H 7.775 L 7.639,3.233 7.5,3.632 7.046,3.634 7.414,3.885 Z M 10.298,18.54 10.161,18.138 10.022,18.54 H 9.568 l 0.369,0.252 -0.139,0.397 0.36,-0.243 0.366,0.243 -0.142,-0.398 0.366,-0.251 z M 8.166,5.052 8.027,5.45 8.387,5.206 8.755,5.45 8.611,5.049 8.979,4.8 H 8.527 L 8.392,4.398 8.253,4.8 H 7.798 Z M 5.51,7.755 H 5.059 L 4.923,7.353 4.785,7.753 4.33,7.755 4.698,8.007 4.56,8.404 4.918,8.161 5.286,8.404 5.142,8.004 Z M 6.559,6.477 6.422,6.875 6.78,6.631 7.148,6.875 7.004,6.474 7.372,6.224 H 6.92 L 6.785,5.823 6.646,6.224 H 6.191 Z M 4.634,6.631 5,6.875 4.858,6.474 5.224,6.224 H 4.774 L 4.637,5.823 4.5,6.224 H 4.045 L 4.413,6.477 4.274,6.875 Z M 5.627,5.45 5.987,5.206 6.353,5.45 6.211,5.049 6.577,4.8 H 6.127 L 5.99,4.398 5.853,4.8 H 5.398 l 0.368,0.252 z m 12.401,7.727 -0.137,-0.402 -0.137,0.4 -0.457,0.002 0.37,0.25 -0.139,0.398 0.36,-0.242 0.366,0.242 -0.142,-0.399 0.366,-0.249 z M 8.711,6.224 H 8.256 L 8.624,6.477 8.486,6.875 8.845,6.631 9.211,6.875 9.069,6.474 9.435,6.224 H 8.986 L 8.848,5.823 Z m 8.391,2.701 v 0.796 h 0.177 v 1.73 l -0.408,10e-4 -0.002,-0.563 -1,0.001 -0.002,0.862 0.564,0.491 h 1.423 l 0.453,-0.486 -10e-4,-2.036 h 0.179 L 18.483,8.925 Z m 0.204,5.581 -0.137,-0.403 -0.138,0.401 -0.455,0.002 0.368,0.251 -0.138,0.398 0.359,-0.244 0.368,0.244 -0.144,-0.4 0.367,-0.249 z M 20.767,5.341 16.063,2 A 6,6 0 0 1 12,3.564 6.011,6.011 0 0 1 7.935,2 l -4.7,3.34 A 17.341,17.341 0 0 0 12,22 17.339,17.339 0 0 0 20.767,5.341 Z M 12,21.022 A 16.424,16.424 0 0 1 4.025,5.731 L 7.892,2.98 A 7.223,7.223 0 0 0 12,4.356 7.255,7.255 0 0 0 16.109,2.977 l 3.867,2.752 A 16.43,16.43 0 0 1 12,21.022 Z M 19.503,6.224 19.366,5.823 19.229,6.224 h -0.457 l 0.37,0.253 -0.139,0.398 0.36,-0.244 0.366,0.244 -0.142,-0.401 0.366,-0.25 z m -0.284,1.531 -0.137,-0.402 -0.139,0.4 -0.455,0.002 0.368,0.252 -0.137,0.397 0.359,-0.243 0.367,0.243 -0.143,-0.4 0.367,-0.249 z m -7.646,9.285 h -0.452 l -0.135,-0.402 -0.139,0.4 -0.455,0.002 0.368,0.251 -0.139,0.398 0.36,-0.243 0.368,0.243 -0.144,-0.4 z m 0.46,0.869 -0.138,0.4 -0.456,0.002 0.37,0.252 -0.139,0.397 0.359,-0.243 0.367,0.243 -0.143,-0.4 0.367,-0.249 h -0.45 z m 0.137,1.981 -0.137,-0.404 -0.138,0.402 -0.456,0.002 0.37,0.25 -0.139,0.397 0.359,-0.243 0.367,0.243 -0.143,-0.4 0.367,-0.247 z m 1.12,-2.601 0.367,-0.249 h -0.45 l -0.137,-0.402 -0.138,0.4 -0.455,0.002 0.368,0.251 -0.138,0.398 0.359,-0.243 0.366,0.243 z m 0.741,1.251 -0.137,-0.402 -0.137,0.402 H 13.3 l 0.37,0.252 -0.139,0.397 0.36,-0.243 0.366,0.243 -0.142,-0.398 0.366,-0.251 z m 1.124,-4.437 -0.137,0.401 -0.457,0.002 0.37,0.251 -0.139,0.398 0.36,-0.244 0.366,0.244 -0.142,-0.4 0.366,-0.249 h -0.45 z m 1.368,1.723 -0.137,-0.403 -0.137,0.401 -0.457,0.002 0.37,0.25 -0.139,0.399 0.359,-0.245 0.367,0.245 -0.142,-0.4 0.366,-0.249 z M 15.22,17.22 15.085,16.819 14.946,17.22 h -0.455 l 0.368,0.253 -0.139,0.398 0.36,-0.244 0.368,0.244 -0.144,-0.4 0.368,-0.251 z M 7.134,7.755 6.997,7.353 6.86,7.753 6.405,7.755 6.773,8.007 6.634,8.404 6.994,8.161 7.362,8.404 7.218,8.004 7.584,7.755 Z m 6.073,6.751 -0.137,-0.403 -0.138,0.401 -0.455,0.002 0.368,0.251 -0.138,0.398 0.359,-0.244 0.366,0.244 -0.142,-0.4 0.367,-0.249 z m -2.086,0 -0.135,-0.403 -0.139,0.401 -0.455,0.002 0.368,0.251 -0.139,0.398 0.36,-0.244 0.368,0.244 -0.144,-0.4 0.368,-0.249 z m 1.049,1.32 -0.137,-0.403 -0.138,0.401 -0.456,0.002 0.37,0.25 -0.139,0.399 0.359,-0.245 0.367,0.245 -0.143,-0.4 0.367,-0.249 z m 0,-2.649 -0.137,-0.402 -0.138,0.4 -0.456,0.002 0.37,0.25 -0.139,0.398 0.359,-0.242 0.367,0.242 -0.143,-0.399 0.367,-0.249 z m -2.218,2.649 -0.137,-0.403 -0.137,0.401 -0.457,0.002 0.37,0.25 -0.139,0.399 0.36,-0.245 0.366,0.245 -0.142,-0.4 0.366,-0.249 z m 0.254,-2.649 -0.137,-0.402 -0.137,0.4 -0.456,0.002 0.369,0.25 -0.139,0.398 0.36,-0.242 0.366,0.242 -0.142,-0.399 0.366,-0.249 z m 5.797,-8.894 0.359,-0.243 0.367,0.243 -0.142,-0.4 0.366,-0.249 h -0.45 l -0.137,-0.401 -0.139,0.399 -0.455,0.002 0.37,0.251 z m 0.992,2.194 -0.138,0.398 0.36,-0.244 0.366,0.244 -0.142,-0.401 0.366,-0.25 h -0.45 L 17.22,5.823 17.082,6.224 H 16.627 Z M 17.65,5.45 18.01,5.206 18.376,5.45 18.234,5.049 18.6,4.8 H 18.15 L 18.013,4.398 17.876,4.8 h -0.457 l 0.37,0.252 z m -0.517,2.305 -0.137,-0.402 -0.137,0.4 -0.456,0.002 0.369,0.252 -0.139,0.397 0.36,-0.243 0.366,0.243 -0.142,-0.4 0.366,-0.249 z m -2.756,8.071 -0.137,-0.403 -0.139,0.401 -0.455,0.002 0.368,0.25 -0.137,0.399 0.36,-0.245 0.366,0.245 -0.142,-0.4 0.366,-0.249 z m 1.698,-2.649 -0.137,-0.402 -0.138,0.4 -0.454,0.002 0.368,0.25 -0.139,0.398 0.359,-0.242 0.368,0.242 -0.144,-0.399 0.368,-0.249 z m -1.954,0 -0.135,-0.402 -0.139,0.4 -0.455,0.002 0.368,0.25 -0.137,0.398 0.36,-0.242 0.366,0.242 -0.144,-0.399 0.368,-0.249 z M 15.24,5.45 15.6,5.206 15.966,5.45 15.822,5.049 16.19,4.8 H 15.739 L 15.603,4.398 15.464,4.8 h -0.455 l 0.368,0.252 z m -6.987,7.727 -0.137,-0.402 -0.137,0.4 -0.455,0.002 0.368,0.25 -0.139,0.398 0.36,-0.242 0.367,0.242 -0.143,-0.399 0.366,-0.249 z m 3.158,-3.456 v -0.8 H 9.435 v 0.8 h 0.182 l -0.8,1.731 h -0.15 v 0.791 h 1.371 V 11.452 H 9.869 l 0.061,-0.14 h 0.984 l 0.062,0.14 h -0.169 v 0.791 h 1.368 v -0.791 h -0.15 l -0.8,-1.731 z m -1.206,0.952 0.219,-0.391 0.209,0.391 z M 10.429,5.45 10.788,5.206 11.155,5.45 11.012,5.049 11.379,4.8 h -0.45 L 10.792,4.398 10.655,4.8 h -0.457 l 0.37,0.252 z M 8.96,7.353 8.823,7.753 8.368,7.755 8.736,8.007 8.598,8.404 8.957,8.161 9.323,8.404 9.181,8.004 9.547,7.755 H 9.098 Z m 3.696,1.051 0.36,-0.243 0.366,0.243 -0.142,-0.4 0.366,-0.249 h -0.45 l -0.137,-0.402 -0.138,0.4 -0.455,0.002 0.369,0.252 z m -1.682,-1.051 -0.137,0.4 -0.455,0.002 0.368,0.252 -0.139,0.397 0.36,-0.243 0.368,0.243 -0.144,-0.4 0.368,-0.249 H 11.111 Z M 12.727,6.875 13.086,6.631 13.454,6.875 13.31,6.474 13.678,6.224 H 13.227 L 13.091,5.823 12.952,6.224 h -0.454 l 0.367,0.253 z m 2.065,0 0.36,-0.244 0.366,0.244 -0.142,-0.401 0.366,-0.25 h -0.45 L 15.155,5.823 15.018,6.224 h -0.457 l 0.37,0.253 z m 0.627,4.783 v -1 l -0.241,-0.163 0.241,-0.167 V 9.5 L 14.814,8.928 h -2.206 v 0.8 h 0.283 V 11.46 H 12.61 v 0.791 h 2.2 z m -1.1,-0.206 h -0.44 v -0.465 h 0.44 z m 0,-1.274 h -0.44 V 9.721 h 0.44 z m 0.361,-1.774 0.36,-0.243 0.366,0.243 -0.142,-0.4 0.366,-0.249 h -0.45 l -0.137,-0.402 -0.137,0.4 -0.455,0.002 0.368,0.252 z M 11.051,6.224 10.914,5.823 10.775,6.224 H 10.32 l 0.37,0.253 -0.139,0.398 0.359,-0.244 0.367,0.244 -0.142,-0.401 0.366,-0.25 z M 12.839,5.45 13.198,5.206 13.566,5.45 13.422,5.049 13.789,4.8 h -0.45 L 13.202,4.398 13.064,4.8 H 12.61 l 0.368,0.252 z"/>

</svg>
